X: 30799
T: Other High, The
R: reel
M: 4/4
K: Dmajor
|:f2 fg ecAG|FEFG ABcA|G2 FG Adde|fded cdeg|
f2 fd ecAG|FEFG ABcA|G2 FG Addc|ABGE ED D2:|
|:a2 fa dafa|a2 fa dafa|b2 gb ebgb|b2 gb ebgb|
a2 fa dafa|a2 fa dafa|bgaf gefd|ABGE ED D2:|

